src/assets/icons/cars/automatic_gearbox.svg

<svg width="48" height="48" viewBox="0 0 48 48" fill="none" xmlns="http://www.w3.org/2000/svg">
<g id="Icons / Vertical Cars / Car gearbox automatic">
<g id="Vector">
<path fill-rule="evenodd" clip-rule="evenodd" d="M33.0596 33.9648H14.0596C13.2326 33.9648 12.5596 33.2918 12.5596 32.4648C12.5596 31.6378 13.2326 30.9648 14.0596 30.9648H33.0596C33.8866 30.9648 34.5596 31.6378 34.5596 32.4648C34.5596 33.2918 33.8866 33.9648 33.0596 33.9648ZM25.5596 36.9648C25.5596 37.5158 25.1106 37.9648 24.5596 37.9648H22.5596C22.0086 37.9648 21.5596 37.5158 21.5596 36.9648V35.9648H25.5596V36.9648ZM23.5596 26.9648C24.6626 26.9648 25.5596 26.9648 25.5596 28.9648H21.5596C21.5596 26.9648 22.4566 26.9648 23.5596 26.9648ZM21.5596 10.9648C21.5596 10.4138 22.0086 9.96484 22.5596 9.96484H24.5596C25.1106 9.96484 25.5596 10.4138 25.5596 10.9648V25.3458C24.9686 25.0888 24.2916 24.9648 23.5596 24.9648C22.8276 24.9648 22.1506 25.0888 21.5596 25.3458V10.9648ZM33.0596 28.9648H27.5596V10.9648C27.5596 9.30784 26.2166 7.96484 24.5596 7.96484H22.5596C20.9026 7.96484 19.5596 9.30784 19.5596 10.9648V28.9648H14.0596C12.1296 28.9648 10.5596 30.5348 10.5596 32.4648C10.5596 34.3948 12.1296 35.9648 14.0596 35.9648H19.5596V36.9648C19.5596 38.6218 20.9026 39.9648 22.5596 39.9648H24.5596C26.2166 39.9648 27.5596 38.6218 27.5596 36.9648V35.9648H33.0596C34.9896 35.9648 36.5596 34.3948 36.5596 32.4648C36.5596 30.5348 34.9896 28.9648 33.0596 28.9648Z" fill="#253238"/>
<path fill-rule="evenodd" clip-rule="evenodd" d="M30.5596 13.9648H34.5596C35.1116 13.9648 35.5596 13.5168 35.5596 12.9648C35.5596 12.4128 35.1116 11.9648 34.5596 11.9648H30.5596C30.0076 11.9648 29.5596 12.4128 29.5596 12.9648C29.5596 13.5168 30.0076 13.9648 30.5596 13.9648Z" fill="#253238"/>
<path fill-rule="evenodd" clip-rule="evenodd" d="M30.5596 17.9648H34.5596C35.1116 17.9648 35.5596 17.5168 35.5596 16.9648C35.5596 16.4128 35.1116 15.9648 34.5596 15.9648H30.5596C30.0076 15.9648 29.5596 16.4128 29.5596 16.9648C29.5596 17.5168 30.0076 17.9648 30.5596 17.9648Z" fill="#253238"/>
<path fill-rule="evenodd" clip-rule="evenodd" d="M30.5596 21.9648H34.5596C35.1116 21.9648 35.5596 21.5168 35.5596 20.9648C35.5596 20.4128 35.1116 19.9648 34.5596 19.9648H30.5596C30.0076 19.9648 29.5596 20.4128 29.5596 20.9648C29.5596 21.5168 30.0076 21.9648 30.5596 21.9648Z" fill="#253238"/>
<path fill-rule="evenodd" clip-rule="evenodd" d="M30.5596 25.9648H34.5596C35.1116 25.9648 35.5596 25.5168 35.5596 24.9648C35.5596 24.4128 35.1116 23.9648 34.5596 23.9648H30.5596C30.0076 23.9648 29.5596 24.4128 29.5596 24.9648C29.5596 25.5168 30.0076 25.9648 30.5596 25.9648Z" fill="#253238"/>
</g>
</g>
</svg>

<svg width="48" height="48" viewBox="0 0 48 48" fill="none" xmlns="http://www.w3.org/2000/svg"><g fill-rule="evenodd" clip-rule="evenodd" fill="#253238"><path d="M33.06 33.965h-19c-.827 0-1.5-.673-1.5-1.5s.673-1.5 1.5-1.5h19c.827 0 1.5.673 1.5 1.5s-.673 1.5-1.5 1.5zm-7.5 3c0 .55-.45 1-1 1h-2c-.551 0-1-.45-1-1v-1h4v1zm-2-10c1.103 0 2 0 2 2h-4c0-2 .897-2 2-2zm-2-16c0-.551.449-1 1-1h2c.55 0 1 .449 1 1v14.38c-.591-.256-1.268-.38-2-.38s-1.41.124-2 .38v-14.38zm11.5 18h-5.5v-18a3 3 0 00-3-3h-2a3 3 0 00-3 3v18h-5.5c-1.93 0-3.5 1.57-3.5 3.5s1.57 3.5 3.5 3.5h5.5v1a3 3 0 003 3h2a3 3 0 003-3v-1h5.5c1.93 0 3.5-1.57 3.5-3.5s-1.57-3.5-3.5-3.5zM30.56 13.965h4a1 1 0 000-2h-4a1 1 0 000 2z"/><path d="M30.56 17.965h4a1 1 0 000-2h-4a1 1 0 000 2zM30.56 21.965h4a1 1 0 000-2h-4a1 1 0 000 2zM30.56 25.965h4a1 1 0 000-2h-4a1 1 0 000 2z"/></g></svg>
